static/img/kroki/42f0a0db34326fceede513a38c115584.svg

<?xml version="1.0" encoding="us-ascii" standalone="no"?><svg xmlns="http://www.w3.org/2000/svg" xmlns:xlink="http://www.w3.org/1999/xlink" contentStyleType="text/css" height="1085px" preserveAspectRatio="none" style="width:475px;height:1085px;" version="1.1" viewBox="0 0 475 1085" width="475px" zoomAndPan="magnify"><defs/><g><!--class aws_ecr_encryption_configuration--><g id="elem_aws_ecr_encryption_configuration"><rect codeLine="23" fill="#3D176E" height="100.3828" id="aws_ecr_encryption_configuration" rx="2.5" ry="2.5" style="stroke:#000D19;stroke-width:0.5;" width="327" x="74" y="978.31"/><ellipse cx="89" cy="998.2045" fill="#ADD1B2" rx="11" ry="11" style="stroke:#181818;stroke-width:1.0;"/><path d="M91.9688,1003.8452 Q91.3906,1004.142 90.75,1004.2827 Q90.1094,1004.4389 89.4063,1004.4389 Q86.9063,1004.4389 85.5781,1002.7983 Q84.2656,1001.142 84.2656,998.017 Q84.2656,994.892 85.5781,993.2358 Q86.9063,991.5795 89.4063,991.5795 Q90.1094,991.5795 90.75,991.7358 Q91.4063,991.892 91.9688,992.1889 L91.9688,994.9077 Q91.3438,994.3295 90.75,994.0639 Q90.1563,993.7827 89.5313,993.7827 Q88.1875,993.7827 87.5,994.8608 Q86.8125,995.9233 86.8125,998.017 Q86.8125,1000.1108 87.5,1001.1889 Q88.1875,1002.2514 89.5313,1002.2514 Q90.1563,1002.2514 90.75,1001.9858 Q91.3438,1001.7045 91.9688,1001.1264 L91.9688,1003.8452 Z " fill="#000000"/><text fill="#D9B8FF" font-family="Helvetica" font-size="17" lengthAdjust="spacing" textLength="285" x="108" y="1004.0898">aws_ecr_encryption_configuration</text><line style="stroke:#000D19;stroke-width:0.5;" x1="75" x2="400" y1="1018.0991" y2="1018.0991"/><text fill="#D9B8FF" font-family="sans-serif" font-size="14" font-weight="bold" lengthAdjust="spacing" textLength="127" x="85" y="1040.0942">encryption_type</text><text fill="#D9B8FF" font-family="sans-serif" font-size="14" lengthAdjust="spacing" textLength="48" x="212" y="1040.0942">: string</text><text fill="#D9B8FF" font-family="sans-serif" font-size="14" font-weight="bold" lengthAdjust="spacing" textLength="67" x="85" y="1066.3911">kms_key</text><text fill="#D9B8FF" font-family="sans-serif" font-size="14" lengthAdjust="spacing" textLength="48" x="152" y="1066.3911">: string</text></g><!--class aws_ecr_repository--><g id="elem_aws_ecr_repository"><rect codeLine="27" fill="#3D176E" height="284.4609" id="aws_ecr_repository" rx="2.5" ry="2.5" style="stroke:#000D19;stroke-width:0.5;" width="461" x="7" y="633.85"/><ellipse cx="148.25" cy="653.7445" fill="#ADD1B2" rx="11" ry="11" style="stroke:#181818;stroke-width:1.0;"/><path d="M151.2188,659.3852 Q150.6406,659.682 150,659.8227 Q149.3594,659.9789 148.6563,659.9789 Q146.1563,659.9789 144.8281,658.3383 Q143.5156,656.682 143.5156,653.557 Q143.5156,650.432 144.8281,648.7758 Q146.1563,647.1195 148.6563,647.1195 Q149.3594,647.1195 150,647.2758 Q150.6563,647.432 151.2188,647.7289 L151.2188,650.4477 Q150.5938,649.8695 150,649.6039 Q149.4063,649.3227 148.7813,649.3227 Q147.4375,649.3227 146.75,650.4008 Q146.0625,651.4633 146.0625,653.557 Q146.0625,655.6508 146.75,656.7289 Q147.4375,657.7914 148.7813,657.7914 Q149.4063,657.7914 150,657.5258 Q150.5938,657.2445 151.2188,656.6664 L151.2188,659.3852 Z " fill="#000000"/><text fill="#D9B8FF" font-family="Helvetica" font-size="17" lengthAdjust="spacing" textLength="160" x="173.75" y="659.6298">aws_ecr_repository</text><line style="stroke:#000D19;stroke-width:0.5;" x1="8" x2="467" y1="673.6391" y2="673.6391"/><text fill="#D9B8FF" font-family="sans-serif" font-size="14" font-weight="bold" lengthAdjust="spacing" textLength="197" x="18" y="695.6342">encryption_configuration</text><text fill="#D9B8FF" font-family="sans-serif" font-size="14" lengthAdjust="spacing" textLength="242" x="215" y="695.6342">: aws_ecr_encryption_configuration</text><text fill="#D9B8FF" font-family="sans-serif" font-size="14" font-weight="bold" lengthAdjust="spacing" textLength="164" x="18" y="721.9311">image_scan_on_push</text><text fill="#D9B8FF" font-family="sans-serif" font-size="14" lengthAdjust="spacing" textLength="65" x="182" y="721.9311">: boolean</text><text fill="#D9B8FF" font-family="sans-serif" font-size="14" font-weight="bold" lengthAdjust="spacing" textLength="162" x="18" y="748.2279">image_tag_mutability</text><text fill="#D9B8FF" font-family="sans-serif" font-size="14" lengthAdjust="spacing" textLength="48" x="180" y="748.2279">: string</text><text fill="#D9B8FF" font-family="sans-serif" font-size="14" font-weight="bold" lengthAdjust="spacing" textLength="118" x="18" y="774.5248">lifecycle_policy</text><text fill="#D9B8FF" font-family="sans-serif" font-size="14" lengthAdjust="spacing" textLength="156" x="136" y="774.5248">: dictionary[string, any]</text><text fill="#D9B8FF" font-family="sans-serif" font-size="14" font-weight="bold" lengthAdjust="spacing" textLength="83" x="18" y="800.8217">registry_id</text><text fill="#D9B8FF" font-family="sans-serif" font-size="14" lengthAdjust="spacing" textLength="48" x="101" y="800.8217">: string</text><text fill="#D9B8FF" font-family="sans-serif" font-size="14" font-weight="bold" lengthAdjust="spacing" textLength="115" x="18" y="827.1186">repository_arn</text><text fill="#D9B8FF" font-family="sans-serif" font-size="14" lengthAdjust="spacing" textLength="48" x="133" y="827.1186">: string</text><text fill="#D9B8FF" font-family="sans-serif" font-size="14" font-weight="bold" lengthAdjust="spacing" textLength="135" x="18" y="853.4154">repository_policy</text><text fill="#D9B8FF" font-family="sans-serif" font-size="14" lengthAdjust="spacing" textLength="156" x="153" y="853.4154">: dictionary[string, any]</text><text fill="#D9B8FF" font-family="sans-serif" font-size="14" font-weight="bold" lengthAdjust="spacing" textLength="110" x="18" y="879.7123">repository_uri</text><text fill="#D9B8FF" font-family="sans-serif" font-size="14" lengthAdjust="spacing" textLength="48" x="128" y="879.7123">: string</text><text fill="#D9B8FF" font-family="sans-serif" font-size="14" font-weight="bold" lengthAdjust="spacing" textLength="152" x="18" y="906.0092">repository_visibility</text><text fill="#D9B8FF" font-family="sans-serif" font-size="14" lengthAdjust="spacing" textLength="48" x="170" y="906.0092">: string</text></g><!--class aws_resource--><g id="elem_aws_resource"><rect codeLine="38" fill="#3D176E" height="74.0859" id="aws_resource" rx="2.5" ry="2.5" style="stroke:#000D19;stroke-width:0.5;" width="155" x="160" y="438.76"/><ellipse cx="175" cy="458.6545" fill="#ADD1B2" rx="11" ry="11" style="stroke:#181818;stroke-width:1.0;"/><path d="M177.9688,464.2952 Q177.3906,464.592 176.75,464.7327 Q176.1094,464.8889 175.4063,464.8889 Q172.9063,464.8889 171.5781,463.2483 Q170.2656,461.592 170.2656,458.467 Q170.2656,455.342 171.5781,453.6858 Q172.9063,452.0295 175.4063,452.0295 Q176.1094,452.0295 176.75,452.1858 Q177.4063,452.342 177.9688,452.6389 L177.9688,455.3577 Q177.3438,454.7795 176.75,454.5139 Q176.1563,454.2327 175.5313,454.2327 Q174.1875,454.2327 173.5,455.3108 Q172.8125,456.3733 172.8125,458.467 Q172.8125,460.5608 173.5,461.6389 Q174.1875,462.7014 175.5313,462.7014 Q176.1563,462.7014 176.75,462.4358 Q177.3438,462.1545 177.9688,461.5764 L177.9688,464.2952 Z " fill="#000000"/><text fill="#D9B8FF" font-family="Helvetica" font-size="17" lengthAdjust="spacing" textLength="113" x="194" y="464.5398">aws_resource</text><line style="stroke:#000D19;stroke-width:0.5;" x1="161" x2="314" y1="478.5491" y2="478.5491"/><text fill="#D9B8FF" font-family="sans-serif" font-size="14" font-weight="bold" lengthAdjust="spacing" textLength="26" x="171" y="500.5442">arn</text><text fill="#D9B8FF" font-family="sans-serif" font-size="14" lengthAdjust="spacing" textLength="48" x="197" y="500.5442">: string</text></g><!--class resource--><g id="elem_resource"><rect codeLine="41" fill="#3D176E" height="310.7578" id="resource" rx="2.5" ry="2.5" style="stroke:#000D19;stroke-width:0.5;" width="227" x="124" y="7"/><ellipse cx="192.75" cy="26.8945" fill="#ADD1B2" rx="11" ry="11" style="stroke:#181818;stroke-width:1.0;"/><path d="M195.7188,32.5352 Q195.1406,32.832 194.5,32.9727 Q193.8594,33.1289 193.1563,33.1289 Q190.6563,33.1289 189.3281,31.4883 Q188.0156,29.832 188.0156,26.707 Q188.0156,23.582 189.3281,21.9258 Q190.6563,20.2695 193.1563,20.2695 Q193.8594,20.2695 194.5,20.4258 Q195.1563,20.582 195.7188,20.8789 L195.7188,23.5977 Q195.0938,23.0195 194.5,22.7539 Q193.9063,22.4727 193.2813,22.4727 Q191.9375,22.4727 191.25,23.5508 Q190.5625,24.6133 190.5625,26.707 Q190.5625,28.8008 191.25,29.8789 Q191.9375,30.9414 193.2813,30.9414 Q193.9063,30.9414 194.5,30.6758 Q195.0938,30.3945 195.7188,29.8164 L195.7188,32.5352 Z " fill="#000000"/><text fill="#D9B8FF" font-family="Helvetica" font-size="17" lengthAdjust="spacing" textLength="71" x="218.25" y="32.7798">resource</text><line style="stroke:#000D19;stroke-width:0.5;" x1="125" x2="350" y1="46.7891" y2="46.7891"/><text fill="#D9B8FF" font-family="sans-serif" font-size="14" font-weight="bold" lengthAdjust="spacing" textLength="29" x="135" y="68.7842">age</text><text fill="#D9B8FF" font-family="sans-serif" font-size="14" lengthAdjust="spacing" textLength="66" x="164" y="68.7842">: duration</text><text fill="#D9B8FF" font-family="sans-serif" font-size="14" font-weight="bold" lengthAdjust="spacing" textLength="43" x="135" y="95.0811">atime</text><text fill="#D9B8FF" font-family="sans-serif" font-size="14" lengthAdjust="spacing" textLength="70" x="178" y="95.0811">: datetime</text><text fill="#D9B8FF" font-family="sans-serif" font-size="14" font-weight="bold" lengthAdjust="spacing" textLength="43" x="135" y="121.3779">ctime</text><text fill="#D9B8FF" font-family="sans-serif" font-size="14" lengthAdjust="spacing" textLength="70" x="178" y="121.3779">: datetime</text><text fill="#D9B8FF" font-family="sans-serif" font-size="14" font-weight="bold" lengthAdjust="spacing" textLength="14" x="135" y="147.6748">id</text><text fill="#D9B8FF" font-family="sans-serif" font-size="14" lengthAdjust="spacing" textLength="48" x="149" y="147.6748">: string</text><text fill="#D9B8FF" font-family="sans-serif" font-size="14" font-weight="bold" lengthAdjust="spacing" textLength="33" x="135" y="173.9717">kind</text><text fill="#D9B8FF" font-family="sans-serif" font-size="14" lengthAdjust="spacing" textLength="48" x="168" y="173.9717">: string</text><text fill="#D9B8FF" font-family="sans-serif" font-size="14" font-weight="bold" lengthAdjust="spacing" textLength="90" x="135" y="200.2686">last_access</text><text fill="#D9B8FF" font-family="sans-serif" font-size="14" lengthAdjust="spacing" textLength="66" x="225" y="200.2686">: duration</text><text fill="#D9B8FF" font-family="sans-serif" font-size="14" font-weight="bold" lengthAdjust="spacing" textLength="90" x="135" y="226.5654">last_update</text><text fill="#D9B8FF" font-family="sans-serif" font-size="14" lengthAdjust="spacing" textLength="66" x="225" y="226.5654">: duration</text><text fill="#D9B8FF" font-family="sans-serif" font-size="14" font-weight="bold" lengthAdjust="spacing" textLength="48" x="135" y="252.8623">mtime</text><text fill="#D9B8FF" font-family="sans-serif" font-size="14" lengthAdjust="spacing" textLength="70" x="183" y="252.8623">: datetime</text><text fill="#D9B8FF" font-family="sans-serif" font-size="14" font-weight="bold" lengthAdjust="spacing" textLength="43" x="135" y="279.1592">name</text><text fill="#D9B8FF" font-family="sans-serif" font-size="14" lengthAdjust="spacing" textLength="48" x="178" y="279.1592">: string</text><text fill="#D9B8FF" font-family="sans-serif" font-size="14" font-weight="bold" lengthAdjust="spacing" textLength="34" x="135" y="305.4561">tags</text><text fill="#D9B8FF" font-family="sans-serif" font-size="14" lengthAdjust="spacing" textLength="171" x="169" y="305.4561">: dictionary[string, string]</text></g><!--link aws_ecr_repository to aws_ecr_encryption_configuration--><g id="link_aws_ecr_repository_aws_ecr_encryption_configuration"><path codeLine="53" d="M237.5,918.75 C237.5,940 237.5,954.61 237.5,972.06 " fill="none" id="aws_ecr_repository-to-aws_ecr_encryption_configuration" style="stroke:#FFAF37;stroke-width:2.0;"/><polygon fill="#FFAF37" points="237.5,978.06,241.5,969.06,237.5,973.06,233.5,969.06,237.5,978.06" style="stroke:#FFAF37;stroke-width:2.0;"/></g><!--reverse link aws_resource to aws_ecr_repository--><g id="link_aws_resource_aws_ecr_repository"><path codeLine="54" d="M237.5,531.08 C237.5,561.51 237.5,589.04 237.5,633.64 " fill="none" id="aws_resource-backto-aws_ecr_repository" style="stroke:#FFAF37;stroke-width:2.0;"/><polygon fill="none" points="237.5,513.08,231.5,531.08,243.5,531.08,237.5,513.08" style="stroke:#FFAF37;stroke-width:2.0;"/></g><!--reverse link resource to aws_resource--><g id="link_resource_aws_resource"><path codeLine="55" d="M237.5,336.18 C237.5,381.21 237.5,408.35 237.5,438.52 " fill="none" id="resource-backto-aws_resource" style="stroke:#FFAF37;stroke-width:2.0;"/><polygon fill="none" points="237.5,318.18,231.5,336.18,243.5,336.18,237.5,318.18" style="stroke:#FFAF37;stroke-width:2.0;"/></g><!--SRC=[ZPHRQzj048NV_IiMycPgi1DQnwKKKaDfNq9f-bR2CjeToOErks9s5QDU_djNSXth6kT9qfnFPywC5kr8eq1JX4eOD0cod_azsG8OZBXZTeUjonsBgpI5z6RT5pyx6ou2zs1GVC7y2GCfw1C_TgJs5hqNrotf4wXzngwq-cWV6AoF4jhGehOvU7yN0bDI1co5qPlaDatxPD_qwaQlrkzmW3dMoF-HvNAfLvi-Sh7LYtC_4m_q2yMglRHx5t0GSz2YeLvCMHEja8D1J_fanc-WDTbCl6tLlXypiKNkr1zseDsXfbF8VRkD3yZeGbNWTZ0LRcvrkXw5lqx1CrMlJi31IrGiqIgkYa3EIkLiIbd9K3-9txFvl2NMdlFv-zY1OygexOsNUwnQjRyzQyR2UGgEgxvPfrFjS2bDV9qCP2Yz0YkZMfH-Lx-OE9SZdFK0cJHbW8Ho2bKdS4ufgahbA0kNasf4JQgs1wv-7hat0cpr66d6Z6AfagGxBkUX9B2TabxNuHalcQQSdiZJO9ZsfXczArbXi-Dkf1FMHRBcE-hpPkFL76iGiBwFDJLIwsqY7hfk8VOA4fIAFw9UXqOfYzghfvYHFXPCzwZ5Z-edTdcyFiPHHqxTOl7nyidgxF33dyLYCNA0PoF4gJJx1m00]--></g></svg>

<svg xmlns="http://www.w3.org/2000/svg" width="475" height="1085" viewBox="0 0 475 1085"><rect width="327" height="100.383" x="74" y="978.31" fill="#3D176E" rx="2.5" ry="2.5" style="stroke:#000d19;stroke-width:.5"/><circle cx="89" cy="998.205" r="11" fill="#ADD1B2" style="stroke:#181818;stroke-width:1"/><path d="M91.969 1003.845q-.578.297-1.219.438-.64.156-1.344.156-2.5 0-3.828-1.64-1.312-1.657-1.312-4.782t1.312-4.781q1.328-1.656 3.828-1.656.703 0 1.344.156.656.156 1.219.453v2.719q-.625-.578-1.219-.844-.594-.281-1.219-.281-1.344 0-2.031 1.078-.687 1.062-.687 3.156t.687 3.172q.688 1.062 2.031 1.062.625 0 1.219-.265.594-.281 1.219-.86z"/><text x="108" y="1004.09" fill="#D9B8FF" font-family="Helvetica" font-size="17" textLength="285">aws_ecr_encryption_configuration</text><path d="M75 1018.099h325" style="stroke:#000d19;stroke-width:.5"/><text x="85" y="1040.094" fill="#D9B8FF" font-family="sans-serif" font-size="14" font-weight="bold" textLength="127">encryption_type</text><text x="212" y="1040.094" fill="#D9B8FF" font-family="sans-serif" font-size="14" textLength="48">: string</text><text x="85" y="1066.391" fill="#D9B8FF" font-family="sans-serif" font-size="14" font-weight="bold" textLength="67">kms_key</text><text x="152" y="1066.391" fill="#D9B8FF" font-family="sans-serif" font-size="14" textLength="48">: string</text><rect width="461" height="284.461" x="7" y="633.85" fill="#3D176E" rx="2.5" ry="2.5" style="stroke:#000d19;stroke-width:.5"/><circle cx="148.25" cy="653.745" r="11" fill="#ADD1B2" style="stroke:#181818;stroke-width:1"/><path d="M151.219 659.385q-.578.297-1.219.438-.64.156-1.344.156-2.5 0-3.828-1.64-1.312-1.657-1.312-4.782t1.312-4.781q1.328-1.656 3.828-1.656.703 0 1.344.156.656.156 1.219.453v2.719q-.625-.578-1.219-.844-.594-.281-1.219-.281-1.344 0-2.031 1.078-.687 1.062-.687 3.156t.687 3.172q.688 1.062 2.031 1.062.625 0 1.219-.265.594-.281 1.219-.86z"/><text x="173.75" y="659.63" fill="#D9B8FF" font-family="Helvetica" font-size="17" textLength="160">aws_ecr_repository</text><path d="M8 673.639h459" style="stroke:#000d19;stroke-width:.5"/><text x="18" y="695.634" fill="#D9B8FF" font-family="sans-serif" font-size="14" font-weight="bold" textLength="197">encryption_configuration</text><text x="215" y="695.634" fill="#D9B8FF" font-family="sans-serif" font-size="14" textLength="242">: aws_ecr_encryption_configuration</text><text x="18" y="721.931" fill="#D9B8FF" font-family="sans-serif" font-size="14" font-weight="bold" textLength="164">image_scan_on_push</text><text x="182" y="721.931" fill="#D9B8FF" font-family="sans-serif" font-size="14" textLength="65">: boolean</text><text x="18" y="748.228" fill="#D9B8FF" font-family="sans-serif" font-size="14" font-weight="bold" textLength="162">image_tag_mutability</text><text x="180" y="748.228" fill="#D9B8FF" font-family="sans-serif" font-size="14" textLength="48">: string</text><text x="18" y="774.525" fill="#D9B8FF" font-family="sans-serif" font-size="14" font-weight="bold" textLength="118">lifecycle_policy</text><text x="136" y="774.525" fill="#D9B8FF" font-family="sans-serif" font-size="14" textLength="156">: dictionary[string, any]</text><text x="18" y="800.822" fill="#D9B8FF" font-family="sans-serif" font-size="14" font-weight="bold" textLength="83">registry_id</text><text x="101" y="800.822" fill="#D9B8FF" font-family="sans-serif" font-size="14" textLength="48">: string</text><text x="18" y="827.119" fill="#D9B8FF" font-family="sans-serif" font-size="14" font-weight="bold" textLength="115">repository_arn</text><text x="133" y="827.119" fill="#D9B8FF" font-family="sans-serif" font-size="14" textLength="48">: string</text><text x="18" y="853.415" fill="#D9B8FF" font-family="sans-serif" font-size="14" font-weight="bold" textLength="135">repository_policy</text><text x="153" y="853.415" fill="#D9B8FF" font-family="sans-serif" font-size="14" textLength="156">: dictionary[string, any]</text><text x="18" y="879.712" fill="#D9B8FF" font-family="sans-serif" font-size="14" font-weight="bold" textLength="110">repository_uri</text><text x="128" y="879.712" fill="#D9B8FF" font-family="sans-serif" font-size="14" textLength="48">: string</text><text x="18" y="906.009" fill="#D9B8FF" font-family="sans-serif" font-size="14" font-weight="bold" textLength="152">repository_visibility</text><text x="170" y="906.009" fill="#D9B8FF" font-family="sans-serif" font-size="14" textLength="48">: string</text><rect width="155" height="74.086" x="160" y="438.76" fill="#3D176E" rx="2.5" ry="2.5" style="stroke:#000d19;stroke-width:.5"/><circle cx="175" cy="458.654" r="11" fill="#ADD1B2" style="stroke:#181818;stroke-width:1"/><path d="M177.969 464.295q-.578.297-1.219.438-.64.156-1.344.156-2.5 0-3.828-1.64-1.312-1.657-1.312-4.782t1.312-4.781q1.328-1.656 3.828-1.656.703 0 1.344.156.656.156 1.219.453v2.719q-.625-.579-1.219-.844-.594-.281-1.219-.281-1.344 0-2.031 1.078-.687 1.062-.687 3.156t.687 3.172q.688 1.062 2.031 1.062.625 0 1.219-.265.594-.281 1.219-.86z"/><text x="194" y="464.54" fill="#D9B8FF" font-family="Helvetica" font-size="17" textLength="113">aws_resource</text><path d="M161 478.549h153" style="stroke:#000d19;stroke-width:.5"/><text x="171" y="500.544" fill="#D9B8FF" font-family="sans-serif" font-size="14" font-weight="bold" textLength="26">arn</text><text x="197" y="500.544" fill="#D9B8FF" font-family="sans-serif" font-size="14" textLength="48">: string</text><rect width="227" height="310.758" x="124" y="7" fill="#3D176E" rx="2.5" ry="2.5" style="stroke:#000d19;stroke-width:.5"/><circle cx="192.75" cy="26.895" r="11" fill="#ADD1B2" style="stroke:#181818;stroke-width:1"/><path d="M195.719 32.535q-.578.297-1.219.438-.64.156-1.344.156-2.5 0-3.828-1.64-1.312-1.657-1.312-4.782t1.312-4.781q1.328-1.656 3.828-1.656.703 0 1.344.156.656.156 1.219.453v2.719q-.625-.578-1.219-.844-.594-.281-1.219-.281-1.344 0-2.031 1.078-.687 1.062-.687 3.156t.687 3.172q.688 1.062 2.031 1.062.625 0 1.219-.265.594-.281 1.219-.86z"/><text x="218.25" y="32.78" fill="#D9B8FF" font-family="Helvetica" font-size="17" textLength="71">resource</text><path d="M125 46.789h225" style="stroke:#000d19;stroke-width:.5"/><text x="135" y="68.784" fill="#D9B8FF" font-family="sans-serif" font-size="14" font-weight="bold" textLength="29">age</text><text x="164" y="68.784" fill="#D9B8FF" font-family="sans-serif" font-size="14" textLength="66">: duration</text><text x="135" y="95.081" fill="#D9B8FF" font-family="sans-serif" font-size="14" font-weight="bold" textLength="43">atime</text><text x="178" y="95.081" fill="#D9B8FF" font-family="sans-serif" font-size="14" textLength="70">: datetime</text><text x="135" y="121.378" fill="#D9B8FF" font-family="sans-serif" font-size="14" font-weight="bold" textLength="43">ctime</text><text x="178" y="121.378" fill="#D9B8FF" font-family="sans-serif" font-size="14" textLength="70">: datetime</text><text x="135" y="147.675" fill="#D9B8FF" font-family="sans-serif" font-size="14" font-weight="bold" textLength="14">id</text><text x="149" y="147.675" fill="#D9B8FF" font-family="sans-serif" font-size="14" textLength="48">: string</text><text x="135" y="173.972" fill="#D9B8FF" font-family="sans-serif" font-size="14" font-weight="bold" textLength="33">kind</text><text x="168" y="173.972" fill="#D9B8FF" font-family="sans-serif" font-size="14" textLength="48">: string</text><text x="135" y="200.269" fill="#D9B8FF" font-family="sans-serif" font-size="14" font-weight="bold" textLength="90">last_access</text><text x="225" y="200.269" fill="#D9B8FF" font-family="sans-serif" font-size="14" textLength="66">: duration</text><text x="135" y="226.565" fill="#D9B8FF" font-family="sans-serif" font-size="14" font-weight="bold" textLength="90">last_update</text><text x="225" y="226.565" fill="#D9B8FF" font-family="sans-serif" font-size="14" textLength="66">: duration</text><text x="135" y="252.862" fill="#D9B8FF" font-family="sans-serif" font-size="14" font-weight="bold" textLength="48">mtime</text><text x="183" y="252.862" fill="#D9B8FF" font-family="sans-serif" font-size="14" textLength="70">: datetime</text><text x="135" y="279.159" fill="#D9B8FF" font-family="sans-serif" font-size="14" font-weight="bold" textLength="43">name</text><text x="178" y="279.159" fill="#D9B8FF" font-family="sans-serif" font-size="14" textLength="48">: string</text><text x="135" y="305.456" fill="#D9B8FF" font-family="sans-serif" font-size="14" font-weight="bold" textLength="34">tags</text><text x="169" y="305.456" fill="#D9B8FF" font-family="sans-serif" font-size="14" textLength="171">: dictionary[string, string]</text><path fill="none" d="M237.5 918.75v53.31" style="stroke:#ffaf37;stroke-width:2"/><path fill="#FFAF37" d="m237.5 978.06 4-9-4 4-4-4z" style="stroke:#ffaf37;stroke-width:2"/><path fill="none" d="M237.5 531.08v102.56m0-120.56-6 18h12zm0-176.9v102.34m0-120.34-6 18h12z" style="stroke:#ffaf37;stroke-width:2"/></svg>
